!!!COM: Bach, Johann Sebastian
!!!OPR: Joh. Seb. Bachs vierstimmige Choralgesänge
!!!XEN: Four-part Chorales
!!!OTL: 64. Gott der Vater wohn' uns bei
!!!SCT: BWV 317
!!!SCA: Thematisch-systematisches Verzeichnis der musikalischen Werke Johann Sebastian Bach: Bach-Werke-Verzeichnis (Schmieder)
!!!YOR: Bach Gesellschaft Edition xxxix
!!!ENC: Steven Rasmussen
!!!CDT: 1685/3//-1750/7/28/
!!!OCY: Deutschland
!!!YEC: Copyright (c) 1994, 2000 Center for Computer Assisted Research in the Humanities
!!!YEM: Rights to all derivative editions reserved
!!!YEN: United States of America
**kern	**silbe	**kern	**kern	**kern
*I:[SOPRANO]	*I:[SOPRANO]	*I:[ALTO]	*I:[TENORE]	*I:[BASSO]
*>[A,A,B,B,C]	*	*>[A,A,B,B,C]	*>[A,A,B,B,C]	*>[A,A,B,B,C]
*>A	*	*>A	*>A	*>A
*clefG2	*	*clefG2	*clefGv2	*clefF4
*k[f#c#]	*	*k[f#c#]	*k[f#c#]	*k[f#c#]
*D:	*	*D:	*D:	*D:
*M4/4	*	*M4/4	*M4/4	*M4/4
=1-	=1-	=1-	=1-	=1-
4a	Gottmach'	4f#	4d	4D
4a	deruns	4f#	4d	4D
4b	Va-al-	4g	4d	8GL
.	.	.	.	8F#J
4cc#	-ter-ler	4g	4e	4E
=2	=2	=2	=2	=2
4dd	wohn'SÃ¼n-	4a	8f#L	8DL
.	.	.	8eJ	8C#J
4dd	uns-den	8aL	4d	4BB
.	.	8g#J	.	.
4cc#;	beifrei	4a;	4e;	4AA;
4b	undund	4gn	4e	4E
=3	=3	=3	=3	=3
4dd	lass'helf'	4f#	4d	4BB
4a	unsuns	4e	8eL	4C#
.	.	.	8AJ	.
4f#	nichtse-	(8e	4A	4D
.	.	4d)	.	.
4g	ver--lig	.	4G	4E
.	.	8c#	.	.
=4	=4	=4	=4	=4
4f#	-der-ster-	4.d	[4.A	8F#L
.	.	.	.	8GJ
4e	.	.	.	4A
.	.	8c#	16ALL]	.
.	.	.	16GJJ	.
2d;	-ben,-ben.	2A;	2F#;	2D;
=5:|!:	=5:|!:	=5:|!:	=5:|!:	=5:|!:
*>B	*	*>B	*>B	*>B
4d	Vordir	4A	4F#	4D
4e	demuns	8AL	4A	4C#
.	.	8eJ	.	.
4.f#	Teu-las-	(8e	4A	4D
.	.	4d)	.	.
.	.	.	8AL	4AA
8e	-fel-sen	8c#	8GJ	.
=6	=6	=6	=6	=6
4d	unsganz	4B	4F#	8BBL
.	.	.	.	8AAJ
4e	be-und	4B	4B	4GG
4f#;	-wahr'gar,	4c#;	4A#;	4FF#;
4dd	halt'mit	8dL	4B	4BB
.	.	8eJ	.	.
=7	=7	=7	=7	=7
4cc#	unsal-	4f#	8BL	4F#
.	.	.	8AJ	.
4dd	bei-len	8f#L	4f#	4D
.	.	8bJ	.	.
4.ee	fe-rech-	8bL	4e	4C#
.	.	16aL	.	.
.	.	16g#JJ	.	.
.	.	4a	8c#L	4F#
8dd	-stem-ten	.	8dJ	.
=8	=8	=8	=8	=8
4cc#	Glau-Chri-	4a	4.e	4E
4b	.	4g#	.	4EE
.	.	.	8d	.
4a;	-ben,-sten	4e;	4c#;	4AA;
4a	undent-	4e	4c#	8AL
.	.	.	.	8GJ
=9	=9	=9	=9	=9
4a	auf-flie-	4f#	4d	8F#L
.	.	.	.	8EJ
4dd	dich-hen	4f#	4A	4D
4cc#	lassTeu-	4e	8AL	4AA
.	.	.	8GJ	.
4a	uns-fels	8dL	4F#	4D
.	.	8eJ	.	.
=10	=10	=10	=10	=10
8bL	bau-Li-	4.f#	2B	4D#
8aJ	.	.	.	.
4g	.	.	.	4E
.	.	8e	.	.
4f#;	-en,-sten,	(8eL	4B;	4BB;
.	.	8d#;J)	.	.
4e	ausmit	4e	8BL	4C#
.	.	.	8AJ	.
=11	=11	=11	=11	=11
4f#	Her-Waf-	8eL	4A	4D
.	.	8dJ	.	.
4g	-zens--fen	8dL	4G	4E
.	.	8c#J	.	.
4.a	-grundGott's	8c#L	8F#L	4F#
.	.	8dJ	8AJ	.
.	.	8dL	4B	4G
8g	ver-uns	8eJ	.	.
=12	=12	=12	=12	=12
4f#	-trau-fri-	8e	4.A	4A
.	.	4d	.	.
4e	.	.	.	4AA
.	.	8c#	8G	.
2d;	-en,-sten.	2A;	2F#;	2D;
=13:|!	=13:|!	=13:|!	=13:|!	=13:|!
*>C	*	*>C	*>C	*>C
4d	A-	4A	4A	4F#
4e	-men,	8AL	4A	4C#
.	.	8eJ	.	.
4.f#	a-	8eL	4A	4D
.	.	8dJ	.	.
.	.	8dL	4A	8AL
8e	-men,	8c#J	.	8GJ
=14	=14	=14	=14	=14
4d	das	4d	8AL	(8F#
.	.	.	8F#J	4D)
4e	sei	8BL	8GL	.
.	.	8eJ	8AJ	8C#
4f#;	wahr,	4d;	4A;	4D;
4a	so	4d	8F#L	8DL
.	.	.	8GJ	8EJ
=15	=15	=15	=15	=15
4a	sin-	8dL	8AL	8F#L
.	.	8eJ	8BJ	8GJ
4a	-gen	8f#L	4c#	4A
.	.	8eJ	.	.
4f#	wir	4d	8dL	8BL
.	.	.	8c#J	8AJ
4g	Al-	8dL	4B	4G
.	.	8eJ	.	.
=16	=16	=16	=16	=16
4f#	-le-	(8e	4A	4A
.	.	4d)	.	.
4e	-lu-	.	8AL	4AA
.	.	8c#	8GJ	.
2d;	-ja.	2A;	2F#;	2D;
==|!	==|!	==|!	==|!	==|!
*-	*-	*-	*-	*-
!!!RWG: Key is interpreted using the Humdrum key tool.
!!!END: 1994/06/06
!!!EMD: Converted from MuseData to Humdrum Dec 19, 2000, by Andreas Kornstaedt using muse2kern.
!!!EED: Craig Stuart Sapp
!!!EEV: 2024/03/31
!!!ONB: Some non-unicode characters
